X:1
T:Emmons, CM
T:Arranged from Friedrich Burgmüller (1806-1874)
T:Emmons, CM
T:Public Domain
C:Arranged from Friedrich Burgm&#252;ller (1806-1874)
Z:Public Domain
%%score ( 1 2 ) ( 3 4 )
L:1/8
M:4/4
K:Bb
V:1 treble 
V:2 treble 
V:3 bass 
V:4 bass 
V:1
 F2 | B3 B B2 d2 | B2 F2 D2 [DF]2 | [Fd]3 [DB] ([Fd][Ec])([Ec][CA]) | [DB]6 [DB][Ec] | %5
 [Fd]3 [Fd] ([Ge][Fd])([Ec][DB]) | [Ec]3 [Fd] [Ec]2 ([CA][DB]) | [Ec]3 [Ec] ([Fd][Ec])([DB][CA]) | %8
 (B2 F4) [DB]2 | [Fd]3 [DB] ([Fd][Ec])([Ec][CA]) | [DB]6 |] %11
V:2
 F2 | B3 B B2 d2 | B2 F2 D2 x2 | x8 | x8 | x8 | x8 | x8 | D6 x2 | x8 | x6 |] %11
V:3
 F,2 | B,3 B, B,2 D2 | B,2 F,2 D,2 [B,,B,]2 | [B,,B,]3 [B,,F,] F,2 F,2 | [B,,F,]6 [B,,B,]2 | %5
 [B,,B,]3 [B,,B,] [B,,B,]2 [B,,B,]2 | [F,A,]3 [F,A,] [F,A,]2 F,2 | [F,A,]3 [F,A,] (B,F,) F,2 | %8
 (F,2 B,4) [B,,B,]2 | [B,,B,]3 [B,,B,] (B,F,) F,2 | [B,,F,]6 |] %11
V:4
 F,2 | B,3 B, B,2 D2 | B,2 F,2 D,2 x2 | x4 F,2 F,2 | x8 | x8 | x6 F,2 | x4 F,2 F,2 | B,,6 x2 | %9
 x4 F,2 F,2 | x6 |] %11

